packages/ui-icons/svg/Line/star-light.svg

<svg viewBox="0 0 1920 1920" version="1.1" xmlns="http://www.w3.org/2000/svg">
    <path d="M1306.18122,1110.40706 C1277.72005,1131.18824 1265.86122,1167.66824 1276.70358,1201.43765 L1442.84005,1712.83529 L1007.79064,1396.71294 C979.103577,1375.93176 940.703577,1375.93176 912.12946,1396.71294 L477.080048,1712.83529 L643.32946,1201.21176 C654.171812,1167.66824 642.312989,1131.18824 613.738871,1110.40706 L178.576518,794.284706 L716.402401,794.284706 C751.752989,794.284706 782.924754,771.583529 793.767107,738.04 L960.016518,226.529412 L1126.15299,737.927059 C1136.99534,771.583529 1168.16711,794.284706 1203.51769,794.284706 L1741.45652,794.284706 L1306.18122,1110.40706 Z M1915.95064,737.588235 C1904.99534,703.931765 1873.93652,681.343529 1838.58593,681.343529 L1226.44475,681.343529 L1037.38122,99.2447059 C1026.42593,65.5882353 995.367107,43 960.016518,43 C924.66593,43 893.494165,65.5882353 882.651812,99.2447059 L693.475342,681.343529 L81.3341654,681.343529 C45.9835772,681.343529 14.9247537,703.931765 3.96945955,737.588235 C-6.87289339,771.244706 4.98593014,807.724706 33.5600478,828.505882 L528.807107,1188.22353 L339.517695,1770.43529 C328.675342,1804.09176 340.534165,1840.57176 369.221224,1861.35294 C383.451812,1871.74353 400.280048,1876.93882 416.882401,1876.93882 C433.710636,1876.93882 450.538871,1871.74353 464.76946,1861.24 L960.016518,1501.52235 L1455.03769,1861.24 C1483.61181,1882.13412 1522.12475,1882.13412 1550.81181,1861.35294 C1579.38593,1840.57176 1591.24475,1804.09176 1580.4024,1770.32235 L1391.11299,1188.22353 L1886.36005,828.505882 C1915.04711,807.724706 1926.90593,771.244706 1915.95064,737.588235 L1915.95064,737.588235 Z" stroke="none" stroke-width="1" fill-rule="evenodd"/>
</svg>

<svg viewBox="0 0 1920 1920" xmlns="http://www.w3.org/2000/svg">
    <path d="M1306.181 1110.407c-28.461 20.781-40.32 57.261-29.477 91.03l166.136 511.398-435.05-316.122c-28.686-20.781-67.086-20.781-95.66 0l-435.05 316.122 166.25-511.623c10.842-33.544-1.017-70.024-29.591-90.805L178.577 794.285h537.825c35.351 0 66.523-22.701 77.365-56.245l166.25-511.51 166.136 511.397a81.155 81.155 0 0 0 77.365 56.358h537.939l-435.276 316.122Zm609.77-372.819c-10.956-33.656-42.014-56.244-77.365-56.244h-612.141l-189.064-582.1C1026.426 65.589 995.367 43 960.017 43c-35.351 0-66.523 22.588-77.365 56.245L693.475 681.344H81.335c-35.351 0-66.41 22.588-77.366 56.244-10.842 33.657 1.017 70.137 29.591 90.918l495.247 359.718-189.29 582.211c-10.842 33.657 1.017 70.137 29.704 90.918 14.23 10.39 31.059 15.586 47.661 15.586 16.829 0 33.657-5.195 47.887-15.699l495.248-359.718 495.02 359.718c28.575 20.894 67.088 20.894 95.775.113 28.574-20.781 40.433-57.261 29.59-91.03l-189.289-582.1 495.247-359.717c28.687-20.781 40.546-57.261 29.59-90.918Z" fill-rule="evenodd"/>
</svg>
